X:6296
T:STMPIE3- The Reel o' Stumpie
O:england
S:SMM #457
Q:1/4=120
L:1/4
M:C
K:D
F/ A/ de/ d/4c/4 d|F/ A/ c3/4 f/4 e/ E/ E/ G/|\
F/ A/ d// f/ {f/}e/ d/4c/4d|F/4 A3/4 E3/4 G/4 F/ D/ D/||\
G/|F3/4 G/4 A/ F/ G3/4 A/4 B/ G/|\
F3/4 G/4 A/ F/ G/ E/ E/ G/|F3/4 G/4 A/ F/ G3/4 A/4 B/ G/|\
F3/4 A/4 E3/4 G/4 F/ D/D|]


